src/images/facebook.svg

<svg width="20" height="20" viewBox="0 0 20 20" fill="none" xmlns="http://www.w3.org/2000/svg">
<path d="M10 0C4.47727 0 0 4.47727 0 10C0 15.0136 3.69318 19.1532 8.50546 19.8764V12.6505H6.03136V10.0218H8.50546V8.27273C8.50546 5.37682 9.91636 4.10545 12.3232 4.10545C13.4759 4.10545 14.0855 4.19091 14.3741 4.23V6.52455H12.7323C11.7105 6.52455 11.3536 7.49318 11.3536 8.585V10.0218H14.3482L13.9418 12.6505H11.3536V19.8977C16.2345 19.2355 20 15.0623 20 10C20 4.47727 15.5227 0 10 0Z" fill="black"/>
</svg>

<svg width="20" height="20" fill="none" xmlns="http://www.w3.org/2000/svg"><path d="M10 0C4.477 0 0 4.477 0 10c0 5.014 3.693 9.153 8.505 9.876V12.65H6.031v-2.628h2.474v-1.75c0-2.895 1.411-4.167 3.818-4.167 1.153 0 1.762.086 2.051.125v2.295h-1.642c-1.021 0-1.378.968-1.378 2.06v1.437h2.994l-.406 2.628h-2.588v7.248C16.234 19.235 20 15.062 20 10c0-5.523-4.477-10-10-10z" fill="#000"/></svg>
